X:1
T:Dans une étable obscure
T:Dans une étable obscure
T:Praetorius
C:Praetorius
%%score [ 1 2 3 4 ]
L:1/8
Q:1/4=62
M:4/4
K:A
V:1 treble nm="Soprano" snm="S."
V:2 treble nm="Alto" snm="A."
V:3 treble-8 nm="Tenor" snm="T."
V:4 bass nm="Bass" snm="B."
V:1
!pp!"^Lent et mystérieux" e4 | e2!<(! e2 f2 e2!<)! |!>(! e4 c4!>)! |!ppp! d4 c2 B2 | A4 G4 | %5
w: 1.Dans|une é- table obs-|cu- re,|sous le ciel|é- toi-|
w: 2.Tan-|dis que les Rois|ma- ges,|tan- dis que|les ber-|
w: 3.Plein|d'u- ne fois pro-|fon- de,|le monde est|à ge-|
 !fermata!A4 e4 | e2!<(! e2 f2 e2!<)! |!>(! e4 c4!>)! |!p! d4 c2 B2 | A4 G4 | !fermata!A4 || %11
w: lé! Et|d'u- ne Vier- ge|pu- re,|un doux Sau-|veur est|né.|
w: gers, Lui|por- tent leurs hom-|ma- ges,|por- tons Lui|nos bai-|sers!|
w: noux! Frê-|le Ma- jes- té|blon- de,|E- tends les|mains sur|nous!|
!mf! z2[Q:1/4=80] c c |!>(! (B2 G2) A2 F2!>)! | E6!f![Q:1/4=62] e2 | e2 e2 f2 e2 |!>(! e4 c4!>)! | %16
w: Le Sei-|gneur _ Jé- sus|Christ est|né dans u- ne|crè- che,|
w: Le Sei-|gneur _ Jé- sus|Christ sau-|ra bien nous sou-|ri- re,|
w: Ô Jé-|sus _ tout pe-|tit! Le|monde en- tier T'ac-|cla- me,|
!pp! d4 c2 B2 | A4 G4 | !fermata!A4 z4 :| %19
w: quand a son-|né mi-|nuit.|
w: en cette heu-|reu- se|nuit.|
w: dans l'a- do-|ra- ble|nuit.|
V:2
!pp! A4 | A2!<(! A2 A2 A2!<)! |!>(! G4 A4!>)! |!ppp! B4 F2 F2 | E4 E4 | !fermata!E4 A4 | %6
 A2!<(! A2 A2 A2!<)! |!>(! G4 A4!>)! |!p! B4 F2 F2 | E4 E4 | !fermata!E4 ||!mf! z2 E E | %12
!>(! (^D2 E2) F2 D2!>)! | E6!f! A2 | B2 A2 A2 A2 |!>(! G4 A4!>)! |!pp! B4 F2 F2 | E4 E4 | %18
 !fermata!E4 z4 :| %19
V:3
!pp! c4 | c2!<(! c2 d2 c2!<)! |!>(! B4 A4!>)! |!ppp! f4 e2 d2 | c4 B4 | !fermata!c4 c4 | %6
w: 1.Dans|une é- table obs-|cu- re,|sous le ciel|é- toi-|lé! Et|
w: 2.Tan-|dis que les Rois|ma- ges,|tan- dis que|les ber-|gers, Lui|
w: 3.Plein|d'u- ne fois pro-|fon- de,|le monde est|à ge-|noux! Frê-|
 c2!<(! c2 d2 c2!<)! |!>(! B4 A4!>)! |!p! f4 e2 d2 | c4 B4 | !fermata!c4 ||!mf! z2 A A | %12
w: d'u- ne Vier- ge|pu- re,|un doux Sau-|veur est|né.|Le Sei-|
w: por- tent leurs hom-|ma- ges,|por- tons Lui|nos bai-|sers!|Le Sei-|
w: le Ma- jes- té|blon- de,|E- tends les|mains sur|nous!|Ô Jé-|
!>(! (F2 c2) c2 A2!>)! | G6!f! c2 | d2 c2 d2 c2 |!>(! B4 A4!>)! |!pp! f4 e2 d2 | c4 (B2 d2) | %18
w: gneur _ Jé- sus|Christ est|né dans u- ne|crè- che,|quand a son-|né mi _|
w: gneur _ Jé- sus|Christ sau-|ra bien nous sou-|ri- re,|en cette heu-|reu- se _|
w: sus _ tout pe-|tit! Le|monde en- tier T'ac-|cla- me,|dans l'a- do-|ra- ble _|
 !fermata!c4 z4 :| %19
w: nuit.|
w: nuit.|
w: nuit.|
V:4
!pp! A,4 | A,2!<(! A,2 D,2 A,2!<)! |!>(! E,4 F,4!>)! |!ppp! B,,4 C,2 D,2 | E,4 E,4 | %5
 !fermata!A,,4 A,4 | A,2!<(! A,2 D,2 A,2!<)! |!>(! E,4 F,4!>)! |!p! B,,4 C,2 D,2 | E,4 E,4 | %10
 !fermata!A,,4 ||!mf! z2 A,, A,, |!>(! (B,,2 C,2) F,2 B,,2!>)! | E,6!f! A,2 | G,2 A,2 D,2 A,2 | %15
!>(! E,4 F,4!>)! |!pp! B,,4 C,2 D,2 | E,4 [E,,E,]4 | !fermata![A,,E,]4 z4 :| %19

